storage/app/icons/phosphoricons/light/number-square-four-light.svg

<svg xmlns="http://www.w3.org/2000/svg" fill="currentColor" viewBox="0 0 256 256"><path d="M208 34H48a14 14 0 0 0-14 14v160a14 14 0 0 0 14 14h160a14 14 0 0 0 14-14V48a14 14 0 0 0-14-14m2 174a2 2 0 0 1-2 2H48a2 2 0 0 1-2-2V48a2 2 0 0 1 2-2h160a2 2 0 0 1 2 2Zm-50-62h-10V80a6 6 0 0 0-10.74-3.68l-56 72A6 6 0 0 0 88 158h50v18a6 6 0 0 0 12 0v-18h10a6 6 0 0 0 0-12m-22 0h-37.73L138 97.49Z"/></svg>

<svg xmlns="http://www.w3.org/2000/svg" viewBox="0 0 256 256" fill="currentColor"><path d="M208,34H48A14,14,0,0,0,34,48V208a14,14,0,0,0,14,14H208a14,14,0,0,0,14-14V48A14,14,0,0,0,208,34Zm2,174a2,2,0,0,1-2,2H48a2,2,0,0,1-2-2V48a2,2,0,0,1,2-2H208a2,2,0,0,1,2,2Zm-50-62H150V80a6,6,0,0,0-10.74-3.68l-56,72A6,6,0,0,0,88,158h50v18a6,6,0,0,0,12,0V158h10a6,6,0,0,0,0-12Zm-22,0H100.27L138,97.49Z"/></svg>
